packages/core/src/svgs/tokens/mono/SIGNA.svg

<svg width="24" height="24" viewBox="0 0 24 24" fill="none" xmlns="http://www.w3.org/2000/svg">
<path d="M8.17393 14.0251C8.57533 13.6968 8.86993 13.2564 9.02016 12.76C9.17044 12.2637 9.16957 11.7338 9.01758 11.2378C8.91948 10.9098 8.75813 10.6041 8.54263 10.338L8.4489 10.2256C7.31777 9.0194 6.11791 7.86954 4.94929 6.69466L4.47434 6.18222C3.81838 6.75338 3.19261 7.35829 2.59956 7.99452C2.16021 8.5274 1.9486 9.21201 2.0106 9.89983C2.07261 10.5876 2.40322 11.2234 2.93077 11.6692L4.06814 10.5442C3.45571 9.71304 3.54945 9.11942 4.41186 8.51946L7.28652 11.3816C7.32402 11.4379 7.34901 11.4942 7.37402 11.5629C7.4728 11.7877 7.49575 12.0385 7.43938 12.2775C7.383 12.5165 7.25038 12.7307 7.06155 12.8878L8.17393 14.0251ZM19.5851 15.4687C18.6478 14.5313 17.6915 13.6001 16.7729 12.644C16.6182 12.4734 16.5354 12.2494 16.5418 12.0191C16.6042 11.6816 16.7105 11.363 16.8417 11.0567L15.7481 9.96924L15.6418 10.0693C15.1332 10.5799 14.8481 11.2715 14.8493 11.9923C14.8504 12.7129 15.1378 13.4037 15.6481 13.9126L15.7606 14.0189L19.3852 17.6372C19.4476 17.6997 19.5102 17.7497 19.5726 17.7935C20.1601 17.2123 20.76 16.6685 21.3037 16.0811C21.5287 15.8124 21.7037 15.5062 21.8098 15.1749C21.987 14.6771 22.0058 14.1365 21.8636 13.6275C21.7216 13.1184 21.4256 12.6658 21.0162 12.3315L19.9039 13.4502C20.5288 14.3251 20.4663 14.75 19.5788 15.4687H19.5851ZM12.2485 3.00758C12.4609 3.20756 12.6671 3.38254 12.8546 3.57003C13.0422 3.7575 13.2171 3.95748 13.3921 4.14495C14.2296 3.41379 14.7857 3.50128 15.4856 4.40742L15.2544 4.6574L12.9733 6.9384C12.2797 7.6258 11.8485 7.65081 11.1486 7.06963L9.97374 8.20075C10.21 8.46793 10.4966 8.68576 10.8173 8.84177C11.1379 8.99776 11.4863 9.0888 11.8424 9.1098C12.1983 9.13065 12.555 9.08098 12.8917 8.96359C13.2285 8.8462 13.5387 8.66341 13.8045 8.42573L13.8983 8.33824C15.1669 7.08837 16.4229 5.81352 17.6854 4.55116L17.8353 4.37618L16.2605 2.81385C15.9939 2.54508 15.674 2.33522 15.3213 2.19782C14.9686 2.06043 14.5909 1.99858 14.2128 2.01625C13.8347 2.03392 13.4645 2.13071 13.1262 2.3004C12.7877 2.47009 12.4888 2.70888 12.2485 3.00134V3.00758ZM13.9983 15.7812C13.7698 15.5164 13.4913 15.2993 13.1789 15.1421C12.8665 14.985 12.5261 14.891 12.1773 14.8655C11.8285 14.84 11.4781 14.8834 11.1461 14.9934C10.8141 15.1033 10.507 15.2776 10.2425 15.5062L10.2111 15.5311C9.39879 16.2811 8.63012 17.0936 7.83647 17.8747L6.18039 19.5245C6.77409 20.1432 7.32402 20.7619 7.9302 21.3243C8.22657 21.5853 8.57965 21.7737 8.96147 21.8746C9.34323 21.9754 9.74335 21.986 10.1299 21.9055C10.7486 21.8117 11.3173 21.493 11.711 21.0055L10.6923 20.0057L10.5674 19.887C9.69247 20.5118 9.09257 20.4056 8.53013 19.537C9.44253 18.6184 10.3486 17.6934 11.2736 16.7873C11.3975 16.6602 11.5543 16.5701 11.7265 16.5271C11.8985 16.4839 12.0793 16.4897 12.2485 16.5435C12.4735 16.6373 12.6859 16.756 12.8796 16.8998L14.0046 15.7749L13.9983 15.7812ZM15.4982 19.537C14.7606 20.5181 14.0358 20.5494 13.2733 19.7183C12.6422 19.0307 11.9609 18.3871 11.2986 17.7309L11.0986 17.5622L10.0424 18.6058C10.9299 19.5433 11.7798 20.5431 12.7422 21.4243C13.1642 21.7757 13.6915 21.9764 14.2405 21.9946C14.7893 22.0127 15.3287 21.8472 15.773 21.5242C16.4868 20.9335 17.1689 20.3056 17.8166 19.6432L15.7606 17.606L14.6357 18.7433L15.5043 19.537H15.4982ZM13.9983 5.30108C13.1234 4.41992 12.2797 3.50128 11.361 2.65762C10.9162 2.25916 10.3462 2.0286 9.74948 2.00578C9.15265 1.98296 8.56664 2.16931 8.09268 2.53264C7.39901 3.07632 6.79283 3.75125 6.19289 4.31993L8.24267 6.36345L9.36758 5.23858C9.23635 5.1136 9.0863 4.96361 8.92384 4.83238C8.76135 4.69489 8.59263 4.5824 8.3739 4.41992C8.58637 4.24494 8.69261 4.16995 8.78636 4.07622C8.8897 3.9481 9.02064 3.84497 9.16942 3.77451C9.31815 3.70405 9.48088 3.66808 9.64551 3.66927C9.81014 3.67048 9.97229 3.70882 10.12 3.78145C10.2677 3.85406 10.3972 3.9591 10.4987 4.08871L11.2924 4.88238L12.8484 6.44469L13.9983 5.30108ZM18.6041 14.0189C19.5602 13.0939 20.5226 12.2691 21.36 11.3316C21.7747 10.8595 22.0023 10.2517 22 9.62322C21.9978 8.9947 21.7657 8.38873 21.3475 7.91952C20.7974 7.30709 20.1726 6.75716 19.6226 6.21972L17.6354 8.2195L18.7602 9.39443L19.6226 8.45696C19.7289 8.5757 19.8101 8.6882 19.9101 8.78818C20.0788 8.91617 20.2059 9.09142 20.2748 9.29178C20.3438 9.49198 20.3517 9.70823 20.2976 9.9131C20.2375 10.1466 20.1012 10.3533 19.9101 10.5005L19.1477 11.2692L17.5291 12.8815L17.6541 13.0439C17.9854 13.3752 18.304 13.7126 18.6041 14.0251V14.0189ZM4.39936 15.5437C4.27437 15.3999 4.20563 15.3061 4.12438 15.2312C3.90819 15.0782 3.75482 14.8521 3.69276 14.5947C3.6307 14.3372 3.66415 14.066 3.78693 13.8313C3.86191 13.6752 3.97441 13.5439 4.11814 13.4376L5.83043 11.7316C6.03666 11.5254 6.26789 11.3253 6.43037 11.1692L5.23676 9.98178L2.82454 12.4066C2.37308 12.8316 2.08841 13.4041 2.02195 14.0206C1.95549 14.6371 2.11158 15.2571 2.46207 15.7687C3.043 16.4811 3.66701 17.1573 4.33061 17.7935L6.34914 15.7749L5.21176 14.6438L4.39936 15.5437ZM9.26128 15.8311L5.83669 12.4066L4.76182 13.4439L8.21142 16.8872L9.26128 15.8311ZM13.3984 19.2371L16.8792 15.7561L15.8293 14.6937L12.3422 18.1746L13.3984 19.2371ZM10.5862 4.76988L7.08654 8.26948L8.11769 9.30694L11.6235 5.80727L10.5924 4.76988H10.5862ZM14.7045 8.1695L18.1415 11.5941L19.1914 10.5379L15.7544 7.10712L14.7045 8.1695Z" fill="white"/>
</svg>

<svg xmlns="http://www.w3.org/2000/svg" width="24" height="24" fill="none" viewBox="0 0 24 24">
    <path fill="#fff" d="M8.174 14.025a2.61 2.61 0 0 0 .844-2.787 2.6 2.6 0 0 0-.475-.9l-.094-.112c-1.131-1.207-2.331-2.356-3.5-3.531l-.475-.513A25 25 0 0 0 2.6 7.995a2.625 2.625 0 0 0 .33 3.674l1.138-1.125c-.612-.831-.519-1.425.344-2.025l2.875 2.863a.8.8 0 0 1 .087.18 1.13 1.13 0 0 1-.312 1.326zm11.411 1.444c-.937-.938-1.893-1.869-2.812-2.825a.9.9 0 0 1-.231-.625c.062-.337.168-.656.3-.962l-1.094-1.088-.106.1a2.72 2.72 0 0 0 .006 3.844l.113.106 3.624 3.618q.094.093.188.157c.587-.582 1.187-1.125 1.73-1.713.226-.269.4-.575.507-.906a2.56 2.56 0 0 0-.794-2.844l-1.112 1.12c.625.874.562 1.299-.325 2.018zM12.248 3.008c.213.2.42.375.607.562s.362.387.537.575c.838-.731 1.394-.644 2.094.262l-.232.25-2.28 2.281c-.694.688-1.126.713-1.825.132L9.974 8.2a2.706 2.706 0 0 0 3.83.226l.094-.088c1.269-1.25 2.525-2.524 3.787-3.787l.15-.175-1.575-1.562A2.707 2.707 0 0 0 12.249 3zm1.75 12.773a2.664 2.664 0 0 0-3.755-.275l-.032.025c-.812.75-1.58 1.563-2.375 2.344l-1.656 1.65c.594.618 1.144 1.237 1.75 1.8a2.54 2.54 0 0 0 2.2.58 2.52 2.52 0 0 0 1.581-.9l-1.019-1-.125-.118c-.875.625-1.474.519-2.037-.35.913-.919 1.819-1.844 2.744-2.75a.96.96 0 0 1 .975-.243c.224.093.437.212.63.356l1.126-1.125zm1.5 3.756c-.737.981-1.462 1.012-2.225.181-.63-.687-1.312-1.33-1.974-1.987l-.2-.169-1.057 1.044c.888.937 1.738 1.937 2.7 2.818a2.47 2.47 0 0 0 3.031.1 26 26 0 0 0 2.044-1.88l-2.056-2.038-1.125 1.137.868.794zm-1.5-14.236c-.875-.881-1.718-1.8-2.637-2.643a2.56 2.56 0 0 0-3.268-.125c-.694.543-1.3 1.218-1.9 1.787l2.05 2.043L9.368 5.24c-.132-.125-.282-.275-.444-.407-.163-.137-.331-.25-.55-.412.212-.175.319-.25.412-.344a1.093 1.093 0 0 1 1.713.013l.793.793 1.556 1.563zm4.606 8.718c.956-.925 1.919-1.75 2.756-2.687a2.575 2.575 0 0 0-.012-3.412c-.55-.613-1.175-1.163-1.725-1.7l-1.988 2 1.125 1.174.863-.937c.106.119.187.231.287.331a1.07 1.07 0 0 1 .388 1.125c-.06.234-.197.44-.388.588l-.762.768-1.619 1.613.125.162c.331.331.65.669.95.981zM4.4 15.544c-.125-.144-.193-.238-.275-.313a1.094 1.094 0 0 1-.337-1.4q.114-.234.331-.393l1.712-1.706c.207-.207.438-.407.6-.563L5.237 9.982l-2.412 2.425a2.6 2.6 0 0 0-.363 3.362q.872 1.069 1.869 2.025l2.018-2.02-1.137-1.13zm4.862.287-3.424-3.424-1.075 1.037 3.45 3.443zm4.137 3.406 3.481-3.48-1.05-1.063-3.487 3.48zM10.586 4.77l-3.5 3.5 1.032 1.037 3.505-3.5-1.03-1.037zm4.118 3.4 3.438 3.424 1.05-1.056-3.438-3.43z"/>
</svg>
